X: 4778
T: Boys Of Malin, The
R: reel
M: 4/4
K: Amajor
|:ABcd eAce|fedf edcB|ABcd eAce|1 fdBc d2cB:|2 fdBc defg||
|:aAAA cAce|a2ag fefg|1 aAAA cAce|dcBc defg:|2 afge fdec|dcBc d2cB||
|:Aece Aece|Aece d2cB|Aece Aece|fdBc d2cB:|

